X: 1
T: Bessarabian Hora    [Gm]
S: Bessarabian Dance Band : KlezKanada 2004
M: 6/8
L: 1/16
Q:
K: Gm
|:\
G,4B,2 D4G2 | A2B2B2 B3AB=B |\
c3BAG ^F3EDC| D2d2d2 ^c3BAG |\
G,4B,2 D4G2 | A2B2B2 B3AB=B |
c3BAG ^F3DEF | G3 DBA G3 :|\
|: DGB |\
d3BAG ^F2G4 | A3G^FE D2E4 |\
D3E^FG A3cBA |
[1,3 G3ABc d3 :|[2,4 G3DBA G3 :|\
|: fga |\
b3aag g3ffe | e3ddc c3AB=B |\
c4c2 f3edc |
d3f=ea f3FGA |\
b3aag g3ffe | e3ddc c3ABc |\
d3ecd B3cAB | G3 gdB G3 :|
|: DED |\
D2^F2F2 F3DED | D2G2G2 G3DED |\
D2^F2F2 F3DED | D2d2d2 ^c3BAG |
G2=B2B2 B3G_AG | G2c2c2 c3dec |\
d3ecd B3cAB | G3 gdB G3 :|
%%text KlezKanada 2004
